X:745
T:Reavy's
M:C|
L:1/8
R:reel
D:Martin Hayes: The Lonesome Touch
Z:Devin McCabe
K:G
G,2B,D GBdB | c2ag fgdc | BG G/2G/2G BcdB | cBAG FDCA, |
!G,2B,D GBdB | c2ag fgdc | BG G/2G/2G BcdB |1 cAFA G2DB, :|2 cAFA GABd |
!:g2fa gdBG | FGAB c2dc | Aaag a3g | fdad bdad |
!g2fa gdBG | FGAB c2Bc | dgg2 defd |1 cAFA GABd :|2 cAFA GEDB, ||
